X: 33260
T: Pumpherston, The
R: hornpipe
M: 4/4
K: Dminor
M:12/8
|:A,=B,^C|D^CD A,2F E2D C2G|FGA f2e d2c B2A|^G2A G2A E2F D3|EFG FED ^C2A|
A,=B,^C|D^CD A,2F E2D C2G|FGA f2e d2c B2A|^G2A EF=G FGA D2F|ED^C A2A, D3:|
|:D2e|fed fed e2a a3|fed fed e2a a3|fed edc dcB cBA|BAG ^GAF E2D|
[1 ^C3|DEF DEF ^G2A G2A|DEF DEF ^G2A G2A|DEF ^CDE FGA GFE|FED A2A, D3:|
[2 ^C2A,|D^CD A,2F E2D C2G|FGA f2e d2c B2A|^G2A EF=G FGA D2F|ED^C A2A, D3||

